assets/message.svg

<svg xmlns="http://www.w3.org/2000/svg" fill="none" viewBox="0 0 30 22">
  <path stroke="#2A2238" stroke-width="1.5" d="M1.06506 4.50554s-.146386-3.29625 0-3.29625c.14639.00001 27.87054-.470901 27.87054-.00001v2.82537m-27.87054.47089L13.1423 14.3943c1.5024.8858 2.3122.8922 3.7161 0L28.9356 4.03465m-27.87054.47089V18.6324M28.9356 4.03465V18.6324M20.11 12.0399l8.8256 6.5925m0 0s.1448 2.3544 0 2.3544-27.79005.0296-27.87054 0c-.080484-.0296 0-2.3544 0-2.3544m8.36117-6.5925-8.36117 6.5925"/>
</svg>

<svg width="30" height="22" viewBox="0 0 30 22" fill="none" xmlns="http://www.w3.org/2000/svg">
<path d="M1.06506 4.50554C1.06506 4.50554 0.918674 1.20929 1.06506 1.20929C1.21145 1.2093 28.9356 0.738389 28.9356 1.20928C28.9356 1.68018 28.9356 4.03465 28.9356 4.03465M1.06506 4.50554L13.1423 14.3943C14.6447 15.2801 15.4545 15.2865 16.8584 14.3943L28.9356 4.03465M1.06506 4.50554V18.6324M28.9356 4.03465V18.6324M20.11 12.0399L28.9356 18.6324M28.9356 18.6324C28.9356 18.6324 29.0804 20.9868 28.9356 20.9868C28.7908 20.9868 1.14555 21.0164 1.06506 20.9868C0.984576 20.9572 1.06506 18.6324 1.06506 18.6324M9.42623 12.0399L1.06506 18.6324" stroke="#2A2238" stroke-width="1.5"/>
</svg>
